svgs/tapatalk_pro.svg

<svg width="192" height="192" viewBox="0 0 192 192" fill="none" xmlns="http://www.w3.org/2000/svg">
<path d="M90 58V118C90 126.837 97.1634 134 106 134H114M70 84H114" stroke="black" stroke-width="12" stroke-linecap="round" stroke-linejoin="round"/>
<path d="M144.209 25.0762C145.208 22.5437 148.792 22.5437 149.791 25.0761L154.159 36.1512C154.464 36.9243 155.076 37.5364 155.849 37.8413L166.924 42.2092C169.456 43.208 169.456 46.792 166.924 47.7908L155.849 52.1587C155.076 52.4636 154.464 53.0757 154.159 53.8488L149.791 64.9238C148.792 67.4563 145.208 67.4563 144.209 64.9239L139.841 53.8488C139.536 53.0757 138.924 52.4636 138.151 52.1587L127.076 47.7908C124.544 46.792 124.544 43.208 127.076 42.2092L138.151 37.8413C138.924 37.5364 139.536 36.9243 139.841 36.1512L144.209 25.0762Z" fill="black"/>
<path fill-rule="evenodd" clip-rule="evenodd" d="M96 16C51.8172 16 16 51.8172 16 96C16 111.18 20.2332 125.386 27.5847 137.486L16.3699 167.926C15.5609 170.122 16.1025 172.588 17.7573 174.243C19.4122 175.897 21.8782 176.439 24.0742 175.63L54.5142 164.415C66.6138 171.767 80.8205 176 96 176C140.183 176 176 140.183 176 96H164C164 133.555 133.555 164 96 164C82.1441 164 69.273 159.862 58.5324 152.756C56.9394 151.702 54.9399 151.47 53.1476 152.13L32.1242 159.876L39.8697 138.852C40.53 137.06 40.2975 135.061 39.2436 133.468C32.1377 122.727 28 109.856 28 96C28 58.4446 58.4446 28 96 28V16Z" fill="black"/>
<path fill-rule="evenodd" clip-rule="evenodd" d="M67.262 34.3711C80.2768 28.3022 94.8787 26.5094 108.975 29.2494C112.228 29.8817 115.377 27.7573 116.01 24.5045C116.642 21.2517 114.518 18.1022 111.265 17.4699C94.6808 14.2463 77.5021 16.3556 62.1906 23.4954C46.8791 30.6353 34.221 42.4391 26.0305 57.2153C19.4261 69.1298 15.9999 82.4835 15.9999 96H28C27.9999 84.511 30.9122 73.1603 36.5259 63.033C43.4879 50.4733 54.2473 40.44 67.262 34.3711ZM96 164V176C107.621 176 119.166 173.468 129.809 168.505C145.121 161.365 157.779 149.561 165.97 134.785C174.16 120.009 177.463 103.019 175.404 86.2505C175 82.9615 172.006 80.6227 168.717 81.0265C165.428 81.4303 163.089 84.424 163.493 87.713C165.243 101.966 162.436 116.407 155.474 128.967C148.512 141.527 137.753 151.56 124.738 157.629C115.691 161.848 105.878 164 96 164Z" fill="black"/>
</svg>

<svg xmlns="http://www.w3.org/2000/svg" width="192" height="192" fill="none" xmlns:v="https://vecta.io/nano"><path d="M90 58v60c0 8.837 7.163 16 16 16h8M70 84h44" stroke="#000" stroke-width="12" stroke-linecap="round" stroke-linejoin="round"/><g fill="#000"><path d="M144.209 25.076c.999-2.532 4.583-2.532 5.582 0l4.368 11.075a3 3 0 0 0 1.69 1.69l11.075 4.368c2.532.999 2.532 4.583 0 5.582l-11.075 4.368a3 3 0 0 0-1.69 1.69l-4.368 11.075c-.999 2.532-4.583 2.532-5.582 0l-4.368-11.075a3 3 0 0 0-1.69-1.69l-11.075-4.368c-2.532-.999-2.532-4.583 0-5.582l11.075-4.368a3 3 0 0 0 1.69-1.69l4.368-11.075z"/><g fill-rule="evenodd"><path d="M96 16c-44.183 0-80 35.817-80 80 0 15.18 4.233 29.386 11.585 41.486l-11.215 30.44a6 6 0 0 0 7.704 7.704l30.44-11.215C66.614 171.767 80.821 176 96 176c44.183 0 80-35.817 80-80h-12c0 37.555-30.445 68-68 68-13.856 0-26.727-4.138-37.468-11.244a6 6 0 0 0-5.385-.626l-21.023 7.746 7.746-21.024a6 6 0 0 0-.626-5.384C32.138 122.727 28 109.856 28 96c0-37.555 30.445-68 68-68V16z"/><path d="M67.262 34.371a68 68 0 0 1 41.713-5.122 6 6 0 1 0 2.29-11.78 80 80 0 0 0-85.234 39.745A80 80 0 0 0 16 96h12a68 68 0 0 1 39.262-61.629zM96 164v12c11.621 0 23.166-2.532 33.809-7.495 15.312-7.14 27.97-18.944 36.161-33.72s11.493-31.766 9.434-48.534a6 6 0 1 0-11.911 1.462 68 68 0 0 1-38.755 69.916A67.99 67.99 0 0 1 96 164z"/></g></g></svg>
